packages/tokens/icons/select/size24Px.svg

<svg xmlns="http://www.w3.org/2000/svg" fill="none" viewBox="0 0 24 24" width="1em" height="1em"><rect width="4" height="4" x="3.5" y="3.5" stroke="currentColor" stroke-linecap="round" stroke-linejoin="round" rx=".5"/><rect width="4" height="4" x="16.5" y="3.5" stroke="currentColor" stroke-linecap="round" stroke-linejoin="round" rx=".5"/><rect width="4" height="4" x="3.5" y="16.5" stroke="currentColor" stroke-linecap="round" stroke-linejoin="round" rx=".5"/><path stroke="currentColor" stroke-linecap="round" stroke-linejoin="round" d="M10.5 5.5h-1m4 0h-1m4 0h-1m-7 13h-1m4 0h-1m-5-10v-1m0 4v-1m0 4v-1m13-3v-1M12 12l3.333 10 2.084-4.583L22 15.333 12 12Z"/></svg>

<svg viewBox="0 0 24 24" fill="none" xmlns="http://www.w3.org/2000/svg" width="1em" height="1em"><rect x="3.5" y="3.5" width="4" height="4" rx="0.5" stroke="currentColor" stroke-linecap="round" stroke-linejoin="round"/><rect x="16.5" y="3.5" width="4" height="4" rx="0.5" stroke="currentColor" stroke-linecap="round" stroke-linejoin="round"/><rect x="3.5" y="16.5" width="4" height="4" rx="0.5" stroke="currentColor" stroke-linecap="round" stroke-linejoin="round"/><path d="M10.5 5.5H9.5" stroke="currentColor" stroke-linecap="round" stroke-linejoin="round"/><path d="M13.5 5.5H12.5" stroke="currentColor" stroke-linecap="round" stroke-linejoin="round"/><path d="M16.5 5.5H15.5" stroke="currentColor" stroke-linecap="round" stroke-linejoin="round"/><path d="M8.5 18.5H7.5" stroke="currentColor" stroke-linecap="round" stroke-linejoin="round"/><path d="M11.5 18.5H10.5" stroke="currentColor" stroke-linecap="round" stroke-linejoin="round"/><path d="M5.5 8.5L5.5 7.5" stroke="currentColor" stroke-linecap="round" stroke-linejoin="round"/><path d="M5.5 11.5L5.5 10.5" stroke="currentColor" stroke-linecap="round" stroke-linejoin="round"/><path d="M5.5 14.5L5.5 13.5" stroke="currentColor" stroke-linecap="round" stroke-linejoin="round"/><path d="M18.5 10.5L18.5 9.5" stroke="currentColor" stroke-linecap="round" stroke-linejoin="round"/><path d="M12 12L15.3333 22L17.4167 17.4167L22 15.3333L12 12Z" stroke="currentColor" stroke-linecap="round" stroke-linejoin="round"/></svg>
